X: 1
T: Off To Puck Fair
M: 6/8
L: 1/8
R: jig
K: Dmaj
f/e/|: d2 A (3 Bcd A|dcd A2 B|=cdc GEG|=cdc Afe|
d2 A (3 Bcd A|dcd ABG|FDF ECE|1 D3 D2 f/e/:|2 D3 D2 F/G/||
|:ABA FDF|ABA FDF|G=cG E=CE|G=cG E=CE|
ABA FDF|ABA A2 g|fed cfe|1 d3 d2 F/G/:|2 d3 d2 e||
|: f2 d A2 F|ABF Ade|fg^g afd|(3 efg f ede|
f2 d A2 F|ABA A2 g|fed cfe|1 d3 d2 e:|2 d3 d2 F/G/||
|:A (3FED DFA|BGE Ee/f/g/a/|bge efd|cde A2 a|
d'af dAF|GAB Eag|fed cfe|d3 d2 F/G/:|
|:ABA ABc|d2 A FDF|F2 G EDE|B2 A F2 G|
ABA ABc|dfd AFD|GBA GFE|1 D3 D2 F/G/:|2 D3 D2 e||
|:f2 d AFA|f2 d Afa|g2 f e2 d|(3 cde c AFA|
f2 d AFA|f2 d AFA|Bgf edc|1 d3 d2 e:|2 d3 d3||
